X:220
T:Sweet, farewell - Fone
%%VWML:SBG-1-2-831-0
F:http://www.vwml.org/record/SBG/1/2/831
Z:Original Sibelius transcriptions by M. & S. Graebe
M:4/4
I:linebreak $
K:Eb
V:1 treble nm="P1"
V:1
 B3 A G2 E2 | B2 FG F2 E2 | B3 B c2 BA | G2 AB c2 B2 |$ c3 d e2 B2 | e2 d2 e2 E2 | c3 c cd e2 | %7
 B2 cB GF E2 |$ C2 D2 E4 | E4 G2 B2 | !fermata!e3 d/c/ B4 | B2 B3/2 B/ cB G2 | F4 E4 | %13



